X:868
T:Country Girl & the Hungarian Fiddler, The
C:Unknown
S:Jock Tamson's Bairns
Z:Nigel Gatherer
L:1/8
M:4/4
K:Amix
d | e2 e2 cAce  | cAce  e2 dB | e2 e2 cAce | edBG A3 :|
B | c2 c2 A3  c | d2 d2 B3  d | e2 e2 cAce | edBG A3 :|
z | A2 ce e2 Be | e2 de edBG | A2 ce e2 Be | edBG A3 :|
z | A2 ca gfdf  | fece  edBG | A2 ca gece  | edBG A3 :|
<end>
<start>
